<?xml version='1.0' encoding='utf-8'?>
<map version="1.10" tiledversion="1.10.2" orientation="orthogonal" renderorder="right-down" width="28" height="20" tilewidth="16" tileheight="16" infinite="0" nextlayerid="5" nextobjectid="1">
  <properties>
    <property name="Outdoors" value="T" />
    <property name="CardchaRegionVersion" value="0.3.0-alpha.28.0.4.14.4.5.12.46" />
    <property name="CardchaRegionRole" value="boss2|hollow-curator|library-of-forgotten-cards" />
    <property name="CardchaAssetPolicy" value="cardcha-owned-map|cardcha-owned-ground-tiles|no-third-party-assets" />
  </properties>
  <tileset firstgid="1" name="spring_outdoorsTileSheet" tilewidth="16" tileheight="16" tilecount="1975" columns="25">
    <image source=".spring_outdoorsTileSheet.png" width="400" height="1264" />
  </tileset>
  <tileset firstgid="1976" name="CardchaArenaGround" tilewidth="16" tileheight="16" tilecount="8" columns="8">
    <image source="bosses/milestone/hollow_curator_ground_tiles.png" width="128" height="16" />
  </tileset>
  <tileset firstgid="1984" name="HollowCuratorArchitecture" tilewidth="16" tileheight="16" tilecount="32" columns="8">
    <image source="bosses/milestone/hollow_curator_arena_tiles.png" width="128" height="64" />
  </tileset>
  <layer id="1" name="Back" width="28" height="20">
    <data encoding="csv">
382,381,381,381,381,381,381,381,381,381,381,381,381,381,381,381,381,381,381,381,381,381,381,381,381,381,381,381,381,381,381,381,381,381,381,381,381,381,381,381,381,381,381,381,381,381,381,381,381,381,381,381,381,381,381,381,381,381,2001,381,2003,381,2001,381,2003,381,2001,381,2003,381,2001,381,2003,381,2001,381,2003,381,2001,381,2003,382,381,381,381,381,2009,381,381,381,381,381,381,381,457,457,457,457,457,457,457,457,381,381,381,381,382,381,381,2011,381,381,381,381,381,381,381,381,381,381,382,382,457,457,457,457,457,457,457,457,382,382,381,381,381,381,381,381,381,381,381,381,381,381,381,381,381,457,382,382,457,457,457,457,457,457,457,457,382,382,457,381,381,381,381,381,381,381,381,381,2008,381,381,381,382,2011,382,382,382,382,382,382,382,382,382,382,382,382,2011,382,381,381,381,2010,381,381,381,381,381,381,381,381,457,457,2002,382,457,457,457,457,457,457,457,457,382,2002,457,457,381,381,381,381,381,381,381,381,381,381,381,457,457,457,382,382,457,457,2014,457,2013,457,2014,457,382,382,457,457,457,381,381,381,381,381,381,381,2009,381,382,457,457,457,382,382,457,457,457,2000,2012,2000,457,457,382,382,457,457,457,381,381,2011,381,381,381,382,381,381,381,457,457,457,382,382,457,457,2013,2012,2015,2012,2013,457,382,382,457,457,457,381,381,381,381,381,381,381,381,381,381,381,457,457,382,382,457,457,457,2000,2012,2000,457,457,382,382,457,457,381,381,381,381,381,381,381,381,2008,381,381,381,382,382,2002,382,382,382,2014,382,2013,382,2014,382,382,2002,382,382,381,381,381,2010,382,381,381,381,381,381,381,381,381,2009,382,382,457,457,457,457,457,457,457,457,382,382,2009,381,381,382,381,381,381,381,381,381,381,381,381,381,381,381,382,382,457,457,457,457,457,457,457,457,382,382,382,381,381,381,381,381,381,381,381,381,2009,381,381,381,381,381,381,381,457,457,457,457,457,457,457,457,381,381,381,381,381,381,381,2011,381,381,381,381,381,381,381,381,381,381,381,381,381,381,381,381,382,381,381,381,381,381,381,381,381,381,381,381,381,381,381,381,2012,381,2002,381,2012,381,2002,381,2012,382,2002,381,2012,381,2002,381,2012,381,2002,381,2012,381,2002,381,381,381,381,381,381,381,381,381,381,381,382,381,381,381,381,381,381,381,381,381,381,381,381,381,381,381,381,381,381,381,381,381,381,381,381,382,381,381,381,381,381,381,381,381,381,381,381,381,381,381,381,381,381,381,381,381,381,381
</data>
  </layer>
  <layer id="4" name="CardchaArenaGround" width="28" height="20">
    <data encoding="csv">
0,0,0,0,0,0,0,0,0,0,0,0,0,0,0,0,0,0,0,0,0,0,0,0,0,0,0,0,0,0,0,0,0,0,0,0,0,0,0,0,0,0,0,0,0,0,0,0,0,0,0,0,0,0,0,0,0,0,0,0,0,0,0,0,0,0,0,0,0,0,0,0,0,0,0,0,0,0,0,0,0,0,0,0,0,0,0,0,0,0,0,0,0,0,0,0,0,0,1976,0,0,0,0,0,0,0,0,0,0,0,0,0,0,0,0,0,0,0,0,0,0,0,1977,0,0,0,0,0,0,0,1977,0,0,0,0,0,0,0,0,0,0,0,0,0,0,0,0,0,0,0,0,0,0,0,0,0,0,0,0,0,0,0,0,0,0,0,0,0,0,0,0,0,0,0,0,0,0,0,0,0,0,0,0,0,0,0,0,0,0,0,0,0,0,0,0,0,0,0,0,0,0,0,0,1978,0,0,0,0,1977,0,1978,0,1979,0,0,0,0,1978,0,0,0,0,0,0,0,0,0,0,0,0,0,0,0,0,0,1976,0,0,0,0,0,1980,0,0,0,0,0,0,0,0,0,0,0,0,0,0,0,0,0,0,0,0,0,0,0,0,0,0,0,0,0,0,0,0,0,0,0,0,0,0,0,0,0,0,0,0,0,0,0,0,0,1982,0,0,0,0,0,1982,0,0,0,0,0,0,0,0,0,0,0,0,0,0,0,0,1979,0,0,0,0,1977,0,0,0,0,0,1981,0,0,0,0,1979,0,0,0,0,0,0,0,0,0,0,0,0,0,0,0,0,0,1976,0,0,0,1982,0,0,0,0,0,0,0,0,0,0,0,0,0,0,0,0,0,0,0,0,0,0,0,0,0,1983,0,0,0,0,0,0,0,0,0,0,0,0,0,0,0,0,0,0,0,0,0,0,1980,0,0,0,0,0,0,0,0,0,1980,0,0,0,0,0,0,0,0,0,0,0,0,0,0,0,0,0,0,0,0,0,0,1981,0,0,0,0,0,0,0,0,0,0,0,0,0,0,0,0,0,0,0,0,0,0,0,0,0,0,0,0,0,0,0,0,0,0,0,0,0,0,0,0,0,0,0,0,0,0,0,0,0,0,0,0,0,0,0,0,0,0,0,0,0,0,0,0,0,0,0,0,0,0,0,0,0,0,0,0,0,0,0,0,0,0,0,0,0,0,0,0,0,0,0,0,0,0,0,0,0,0,0,0,0,0,0,0,0,0,0,0,0,0,0,0,0,0,0,0,0,0,0,0,0,0,0,0,0
</data>
  </layer>
  <layer id="2" name="Buildings" width="28" height="20">
    <data encoding="csv">
1990,1987,1985,1986,1985,1985,1987,1985,1985,1986,1985,1987,1986,1985,1985,1986,1987,1985,1986,1985,1985,1987,1985,1985,1986,1985,1987,1990,2007,0,0,0,0,0,0,0,0,0,0,0,0,0,0,0,0,0,0,0,0,0,0,0,0,0,0,2007,2007,0,0,0,0,0,0,0,0,0,0,0,0,0,0,0,0,0,0,0,0,0,0,0,0,0,0,2007,2007,0,0,0,0,0,0,0,0,0,0,0,0,0,0,0,0,0,0,0,0,0,0,0,0,0,0,2007,2007,0,0,0,0,0,0,0,0,0,0,0,0,0,0,0,0,0,0,0,0,0,0,0,0,0,0,2007,1988,0,0,0,0,1992,0,0,0,0,0,0,0,0,0,0,0,0,0,0,0,0,1994,0,0,0,0,1989,2007,0,0,0,0,0,0,0,0,0,0,0,0,0,0,0,0,0,0,0,0,0,0,0,0,0,0,2007,2007,0,0,0,0,0,0,0,0,0,0,0,0,0,0,0,0,0,0,0,0,0,0,0,0,0,0,2007,2007,0,0,0,0,0,0,0,0,0,0,0,0,0,0,0,0,0,0,0,0,0,0,0,0,0,0,2007,2007,0,0,0,0,0,0,0,0,0,0,0,0,0,0,0,0,0,0,0,0,0,0,0,0,0,0,2007,1988,0,0,0,0,0,0,0,0,0,0,0,0,0,0,0,0,0,0,0,0,0,0,0,0,0,0,1989,2007,0,0,0,0,0,0,0,0,0,0,0,0,0,0,0,0,0,0,0,0,0,0,0,0,0,0,2007,2007,0,0,0,0,0,0,0,0,0,0,0,0,0,0,0,0,0,0,0,0,0,0,0,0,0,0,2007,2007,0,0,0,0,0,0,0,0,0,0,0,0,0,0,0,0,0,0,0,0,0,0,0,0,0,0,2007,2007,0,0,0,0,1995,0,0,0,0,0,0,0,0,0,0,0,0,0,0,0,0,1991,0,0,0,0,2007,1988,0,0,0,0,0,0,0,0,0,0,0,0,0,0,0,0,0,0,0,0,0,0,0,0,0,0,1989,2007,0,0,0,0,0,0,0,0,0,0,0,0,0,0,0,0,0,0,0,0,0,0,0,0,0,0,2007,2007,0,0,0,0,0,0,0,0,0,0,0,0,0,0,0,0,0,0,0,0,0,0,0,0,0,0,2007,2007,0,0,0,0,0,0,0,0,0,0,0,0,0,0,0,0,0,0,0,0,0,0,0,0,0,0,2007,1990,1984,1984,1995,1984,1984,1995,1984,1984,1995,1984,1984,1995,0,0,1995,1984,1984,1995,1984,1984,1995,1984,1984,1995,1984,1984,1990
</data>
  </layer>
  <layer id="3" name="Front" width="28" height="20">
    <data encoding="csv">
0,0,0,0,0,0,0,0,0,0,0,0,0,0,0,0,0,0,0,0,0,0,0,0,0,0,0,0,0,0,0,0,0,0,0,0,0,0,0,0,0,0,0,0,0,0,0,0,0,0,0,0,0,0,0,0,0,0,0,0,0,0,0,0,0,0,0,0,0,0,0,0,0,0,0,0,0,0,0,0,0,0,0,0,0,0,0,0,0,0,0,0,0,0,0,0,0,0,0,0,0,0,0,0,0,0,0,0,0,0,0,0,0,0,0,0,0,0,0,0,0,0,0,0,0,0,0,0,0,0,0,0,0,0,0,0,0,0,0,0,0,0,0,0,0,0,0,0,0,0,0,0,0,0,0,0,0,0,0,0,0,0,0,0,0,0,0,0,0,0,0,0,0,0,0,0,0,0,0,0,0,0,0,0,0,0,0,0,0,0,0,0,0,0,0,0,0,0,0,0,0,0,0,0,0,0,0,0,0,0,0,0,0,0,0,0,0,0,0,0,0,0,0,0,0,0,0,0,0,0,0,0,0,0,0,0,0,0,0,0,0,0,0,0,0,0,0,0,0,0,0,0,0,0,0,0,0,0,0,0,0,0,0,0,0,0,0,0,0,0,0,0,0,0,0,0,0,0,0,0,0,0,0,0,0,0,0,0,0,0,0,0,0,0,0,0,0,0,0,0,0,0,0,0,0,0,0,0,0,0,0,0,0,0,0,0,0,0,0,0,0,0,0,0,0,0,0,0,0,0,0,0,0,0,0,0,0,0,0,0,0,0,0,0,0,0,0,0,0,0,0,0,0,0,0,0,0,0,0,0,0,0,0,0,0,0,0,0,0,0,0,0,0,0,0,0,0,0,0,0,0,0,0,0,0,0,0,0,0,0,0,0,0,0,0,0,0,0,0,0,0,0,0,0,0,0,0,0,0,0,0,0,0,0,0,0,0,0,0,0,0,0,0,0,0,0,0,0,0,0,0,0,0,0,0,0,0,0,0,0,0,0,0,0,0,0,0,0,0,0,0,0,0,0,0,0,0,0,0,0,0,0,0,0,0,0,0,0,0,0,0,0,0,0,0,0,0,0,0,0,0,0,0,0,0,0,0,0,0,0,0,0,0,0,0,0,0,0,0,0,0,0,0,0,0,0,0,0,0,0,0,0,0,0,0,0,0,0,0,0,0,0,0,0,0,0,0,0,0,0,0,0,0,0,0,0,0,0,0,0,0,0,0,0,0,0,0,0,0,0,0,0,0,0,0,0,0,0,0,0
</data>
  </layer>
</map>