<?xml version='1.0' encoding='UTF-8'?>
<map version="1.10" tiledversion="1.10.2" orientation="orthogonal" renderorder="right-down" width="22" height="14" tilewidth="16" tileheight="16" infinite="0" nextlayerid="4" nextobjectid="1">
 <properties>
  <property name="CardchaAtticVersion" value="alpha.27.0.7.8.0" />
  <property name="CardchaZoneLayout" value="landing|research|personal|tv-secret|chacha" />
  <property name="CardchaVisualDirection" value="true-stardew-map|framed-room-shell|raised-window|wall-desk|centered-tv-sofa|right-high-fixed-wizard-ladder|strict-csv" />
 </properties>
 <tileset firstgid="1" name="townInterior" tilewidth="16" tileheight="16" tilecount="2176" columns="32">
  <image source=".townInterior.png" width="512" height="1088" />
 </tileset>
 <layer id="1" name="Back" width="22" height="14">
  <data encoding="csv">
0,0,0,0,0,0,0,0,0,0,0,0,0,0,0,0,0,0,0,0,0,0,
0,171,171,171,171,171,171,171,171,171,171,171,171,171,171,171,171,171,171,171,171,0,
0,171,171,171,171,171,171,171,171,171,171,171,171,171,171,171,171,171,171,171,171,0,
0,113,113,113,113,113,113,113,113,113,113,113,113,113,113,113,113,113,113,113,113,0,
0,200,200,200,200,200,200,200,200,200,200,200,200,200,200,200,200,200,200,200,200,0,
0,232,233,232,233,232,233,232,233,232,233,232,233,232,233,232,233,232,233,232,233,0,
0,264,265,264,265,264,265,264,265,264,265,264,265,264,265,264,265,264,265,264,265,0,
0,232,233,232,233,232,233,232,233,232,233,232,233,232,233,232,233,232,233,232,233,0,
0,264,265,264,265,264,265,264,265,264,265,264,265,264,265,264,265,264,265,264,265,0,
0,232,233,232,233,232,233,232,233,232,233,232,233,232,233,232,233,232,233,232,233,0,
0,264,265,264,265,264,265,264,265,264,265,264,265,264,265,264,265,264,265,264,265,0,
0,232,233,232,233,232,233,232,233,232,233,232,233,232,233,232,233,232,233,232,233,0,
0,264,265,264,265,264,265,264,265,264,265,264,265,264,265,264,265,264,265,264,265,0,
0,0,0,0,0,0,0,0,0,0,264,265,0,0,0,0,0,0,0,0,0,0
</data>
 </layer>
 <layer id="2" name="Buildings" width="22" height="14">
  <data encoding="csv">
0,0,0,0,0,0,0,0,0,0,0,0,0,0,0,0,0,0,0,0,0,0,
0,155,0,0,0,0,0,0,0,0,0,0,0,0,0,0,0,0,0,0,156,0,
0,187,81,81,81,81,81,81,81,81,81,81,81,81,81,81,81,81,81,81,188,0,
0,113,113,113,113,113,113,113,113,113,113,113,113,113,113,113,113,113,113,113,113,0,
0,68,0,0,0,0,0,0,0,0,0,0,0,0,0,0,0,0,0,0,69,0,
0,68,0,0,0,0,0,0,0,0,0,0,0,0,0,0,0,0,0,0,69,0,
0,68,0,0,0,0,0,0,0,0,0,0,0,0,0,0,0,0,0,0,69,0,
0,68,0,0,0,0,0,0,0,0,0,0,0,0,0,0,0,0,0,0,69,0,
0,68,0,0,0,0,0,0,0,0,0,0,0,0,0,0,0,0,0,0,69,0,
0,68,0,0,0,0,0,0,0,0,0,0,0,0,0,0,0,0,0,0,69,0,
0,68,0,0,0,0,0,0,0,0,0,0,0,0,0,0,0,0,0,0,69,0,
0,68,0,0,0,0,0,0,0,0,0,0,0,0,0,0,0,0,0,0,69,0,
0,1,1,1,1,1,1,1,1,1,0,0,1,1,1,1,1,1,1,1,1,0,
0,0,0,0,0,0,0,0,0,0,0,0,0,0,0,0,0,0,0,0,0,0
</data>
 </layer>
 <layer id="3" name="Front" width="22" height="14">
  <data encoding="csv">
0,0,0,0,0,0,0,0,0,0,0,0,0,0,0,0,0,0,0,0,0,0,
0,0,0,0,0,0,0,0,0,0,0,0,0,0,0,0,0,0,0,0,0,0,
0,0,0,0,0,0,0,0,0,0,0,0,0,0,0,0,0,0,0,0,0,0,
0,0,0,0,0,0,0,0,0,0,0,0,0,0,0,0,0,0,0,0,0,0,
0,0,0,0,0,0,0,0,0,0,0,0,0,0,0,0,0,0,0,0,0,0,
0,0,0,0,0,0,0,0,0,0,0,0,0,0,0,0,0,0,0,0,0,0,
0,0,0,0,0,0,0,0,0,0,0,0,0,0,0,0,0,0,0,0,0,0,
0,0,0,0,0,0,0,0,0,0,0,0,0,0,0,0,0,0,0,0,0,0,
0,0,0,0,0,0,0,0,0,0,0,0,0,0,0,0,0,0,0,0,0,0,
0,0,0,0,0,0,0,0,0,0,0,0,0,0,0,0,0,0,0,0,0,0,
0,0,0,0,0,0,0,0,0,0,0,0,0,0,0,0,0,0,0,0,0,0,
0,0,0,0,0,0,0,0,0,0,0,0,0,0,0,0,0,0,0,0,0,0,
0,166,166,166,166,166,166,166,166,166,0,0,166,166,166,166,166,166,166,166,166,0,
0,0,0,0,0,0,0,0,0,0,0,0,0,0,0,0,0,0,0,0,0,0
</data>
 </layer>
</map>