<?xml version='1.0' encoding='UTF-8'?>
<map version="1.10" tiledversion="1.10.2" orientation="orthogonal" renderorder="right-down" width="30" height="18" tilewidth="16" tileheight="16" infinite="0" nextlayerid="5" nextobjectid="1">
 <properties>
  <property name="CardchaAirshipVersion" value="alpha.28.0.4.14.4.5.12.45.3" />
  <property name="CardchaAirshipRole" value="airship-transit-dock|route-board|visible-boarding-pad|service-zone|forest-return" />
  <property name="CardchaVisualProfile" value="airship-dock-waiting-hall|native-stardew-furniture|warm-wood-brass|clear-walking-spine" />
  <property name="CardchaArchitecture" value="vanilla-shell|native-furniture-and-object|no-postworld-physical-decor|depth-contract-0677" />
 </properties>
 <tileset firstgid="1" name="townInterior" tilewidth="16" tileheight="16" tilecount="2176" columns="32">
  <image source=".townInterior.png" width="512" height="1088" />
 </tileset>
 <tileset firstgid="4096" name="cardchaDecor_sky_dock_stardew.png" tilewidth="16" tileheight="16" tilecount="540" columns="30">
  <image source="sky_dock_stardew.png" width="480" height="288" />
 </tileset>
 <layer id="1" name="Back" width="30" height="18">
  <data encoding="csv">
0,0,0,0,0,0,0,0,0,0,0,0,0,0,0,0,0,0,0,0,0,0,0,0,0,0,0,0,0,0,
0,171,171,171,171,171,171,171,171,171,171,171,171,171,171,171,171,171,171,171,171,171,171,171,171,171,171,171,171,0,
0,171,171,171,171,171,171,171,171,171,171,171,171,171,171,171,171,171,171,171,171,171,171,171,171,171,171,171,171,0,
0,113,113,113,113,113,113,113,113,113,113,113,113,113,113,113,113,113,113,113,113,113,113,113,113,113,113,113,113,0,
0,200,200,200,200,200,200,200,200,200,200,200,200,200,200,200,200,200,200,200,200,200,200,200,200,200,200,200,200,0,
0,232,233,232,233,232,233,232,233,232,233,232,233,232,233,232,233,232,233,232,233,232,233,232,233,232,233,232,233,0,
0,264,265,264,265,264,265,264,265,264,265,264,265,264,265,264,265,264,265,264,265,264,265,264,265,264,265,264,265,0,
0,232,233,232,233,232,233,232,233,232,233,232,233,232,233,232,233,232,233,232,233,232,233,232,233,232,233,232,233,0,
0,264,265,264,265,264,265,264,265,264,265,264,265,264,265,264,265,264,265,264,265,264,265,264,265,264,265,264,265,0,
0,232,233,232,233,232,233,232,233,232,233,232,233,232,233,232,233,232,233,232,233,232,233,232,233,232,233,232,233,0,
0,264,265,264,265,264,265,264,265,264,265,264,265,264,265,264,265,264,265,264,265,264,265,264,265,264,265,264,265,0,
0,232,233,232,233,232,233,232,233,232,233,232,233,232,233,232,233,232,233,232,233,232,233,232,233,232,233,232,233,0,
0,264,265,264,265,264,265,264,265,264,265,264,265,264,265,264,265,264,265,264,265,264,265,264,265,264,265,264,265,0,
0,232,233,232,233,232,233,232,233,232,233,232,233,232,233,232,233,232,233,232,233,232,233,232,233,232,233,232,233,0,
0,264,265,264,265,264,265,264,265,264,265,264,265,264,265,264,265,264,265,264,265,264,265,264,265,264,265,264,265,0,
0,232,233,232,233,232,233,232,233,232,233,232,233,232,233,232,233,232,233,232,233,232,233,232,233,232,233,232,233,0,
0,264,265,264,265,264,265,264,265,264,265,264,265,264,265,264,265,264,265,264,265,264,265,264,265,264,265,264,265,0,
0,0,0,0,0,0,0,0,0,0,0,0,0,0,264,265,0,0,0,0,0,0,0,0,0,0,0,0,0,0
</data>
 </layer>
 <layer id="2" name="BackDecor" width="30" height="18">
  <data encoding="csv">
0,0,0,0,0,0,0,0,0,0,0,0,0,0,0,0,0,0,0,0,0,0,0,0,0,0,0,0,0,0,0,0,0,0,0,0,0,0,0,0,0,0,0,0,0,0,0,0,0,0,0,0,0,0,0,0,0,0,0,0,0,0,0,0,0,0,0,0,0,0,0,0,0,0,0,0,0,0,0,0,0,0,0,0,0,0,0,0,0,0,0,0,0,0,0,0,0,0,0,0,0,0,0,0,0,0,0,0,0,0,0,0,0,0,0,0,0,0,0,0,0,0,0,0,0,0,0,0,0,0,0,0,0,0,0,0,0,0,0,0,0,0,0,0,0,0,0,0,0,0,0,0,0,0,0,0,0,0,0,0,0,0,0,0,0,0,0,0,0,0,0,0,0,0,0,0,0,0,0,0,0,0,0,0,0,0,0,0,0,0,0,0,0,0,0,0,0,0,0,0,0,0,0,0,0,0,0,0,0,0,0,0,0,0,0,0,0,0,0,0,0,0,0,0,0,0,0,0,0,0,0,0,0,0,0,0,0,0,0,0,0,0,0,0,0,0,0,0,0,0,0,0,0,0,0,0,0,0,0,0,0,0,0,0,0,0,0,0,0,0,0,0,0,0,0,0,0,0,0,0,0,0,0,0,0,0,0,0,0,0,0,0,0,0,0,0,0,0,0,0,0,0,0,0,0,0,0,0,0,0,0,0,0,0,0,0,0,0,0,0,0,0,0,0,0,0,0,0,0,0,0,0,0,0,0,0,0,0,0,0,0,0,0,0,0,0,0,0,0,0,0,0,0,0,0,0,0,0,0,0,0,0,0,0,0,0,0,0,0,0,0,0,0,0,0,0,0,0,0,0,0,0,0,0,0,0,0,0,0,0,0,0,0,0,0,0,0,0,0,0,0,0,0,0,0,0,0,0,0,0,0,0,0,0,0,0,0,0,0,0,0,0,0,0,0,0,0,0,0,0,0,0,0,0,0,0,0,0,0,0,0,0,0,0,0,0,0,0,0,0,0,0,0,0,0,0,0,0,0,0,0,0,0,0,0,0,0,0,0,0,0,0,0,0,0,0,0,0,0,0,0,0,0,0,0,0,0,0,0,0,0,0,0,0,0,0,0,0,0,0,0,0,0,0,0,0,0,0,0,0,0,0,0,0,0,0,0,0,0,0,0,0,0,0,0,0,0,0,0,0,0,0,0,0,0,0,0,0,0,0
</data>
 </layer>
 <layer id="3" name="Buildings" width="30" height="18">
  <data encoding="csv">
0,0,0,0,0,0,0,0,0,0,0,0,0,0,0,0,0,0,0,0,0,0,0,0,0,0,0,0,0,0,4635,4635,4635,4635,4635,4635,4635,4635,4635,4635,4635,4635,4635,4635,4635,4635,4635,4635,4635,4635,4635,4635,4635,4635,4635,4635,4635,4635,4635,4635,4635,4635,4635,4635,4635,4635,4635,4635,4635,4635,4635,4635,4635,4635,4635,4635,4635,4635,4635,4635,4635,4635,4635,4635,4635,4635,4635,4635,4635,4635,4635,4635,4635,4635,4635,4635,4635,4635,4635,4635,4635,4635,4635,4635,4635,4635,4635,4635,4635,4635,4635,4635,4635,4635,4635,4635,4635,4635,4635,4635,4635,4635,4635,4635,4635,4635,4635,4635,4635,4635,4635,4635,4635,4635,4635,4635,4635,4635,4635,4635,4635,4635,4635,4635,4635,4635,4635,4635,4635,4635,4635,0,0,0,0,0,0,0,0,0,0,0,0,0,0,0,0,0,0,0,0,0,0,0,0,0,0,0,0,4635,4635,0,0,0,0,0,0,0,0,0,0,0,0,0,0,0,0,0,0,0,0,0,0,0,0,0,0,0,0,4635,4635,0,0,0,0,0,0,0,0,0,0,0,0,0,0,0,0,0,0,0,0,0,0,0,0,0,0,0,0,4635,4635,0,0,0,0,0,0,0,0,0,0,0,0,0,0,0,0,0,0,0,0,0,0,0,0,0,0,0,0,4635,4635,0,0,0,0,0,0,0,0,0,0,0,0,0,0,0,0,0,0,0,0,0,0,0,0,0,0,0,0,4635,4635,0,0,0,0,0,0,0,0,0,0,0,0,0,0,0,0,0,0,0,0,0,0,0,0,0,0,0,0,4635,4635,0,0,0,0,0,0,0,0,0,0,0,0,0,0,0,0,0,0,0,0,0,0,0,0,0,0,0,0,4635,4635,0,0,0,0,0,0,0,0,0,0,0,0,0,0,0,0,0,0,0,0,0,0,0,0,0,0,0,0,4635,4635,0,0,0,0,0,0,0,0,0,0,0,0,0,0,0,0,0,0,0,0,0,0,0,0,0,0,0,0,4635,4635,0,0,0,0,0,0,0,0,0,0,0,0,0,0,0,0,0,0,0,0,0,0,0,0,0,0,0,0,4635,4635,0,0,0,0,0,0,0,0,0,0,0,0,0,0,0,0,0,0,0,0,0,0,0,0,0,0,0,0,4635,4635,0,0,0,0,0,0,0,0,0,0,0,0,0,0,0,0,0,0,0,0,0,0,0,0,0,0,0,0,4635,4635,4635,4635,4635,4635,4635,4635,4635,4635,4635,4635,4635,4635,4635,0,0,4635,4635,4635,4635,4635,4635,4635,4635,4635,4635,4635,4635,4635,4635
</data>
 </layer>
 <layer id="4" name="Front" width="30" height="18">
  <data encoding="csv">
0,0,0,0,0,0,0,0,0,0,0,0,0,0,0,0,0,0,0,0,0,0,0,0,0,0,0,0,0,0,0,0,0,0,0,0,0,0,0,0,0,0,0,0,0,0,0,0,0,0,0,0,0,0,0,0,0,0,0,0,0,0,0,0,0,0,0,0,0,0,0,0,0,0,0,0,0,0,0,0,0,0,0,0,0,0,0,0,0,0,0,0,0,0,0,0,0,0,0,0,0,0,0,0,0,0,0,0,0,0,0,0,0,0,0,0,0,0,0,0,0,0,0,0,0,0,0,0,0,0,0,0,0,0,0,0,0,0,0,0,0,0,0,0,0,0,0,0,0,0,0,0,0,0,0,0,0,0,0,0,0,0,0,0,0,0,0,0,0,0,0,0,0,0,0,0,0,0,0,0,0,0,0,0,0,0,0,0,0,0,0,0,0,0,0,0,0,0,0,0,0,0,0,0,0,0,0,0,0,0,0,0,0,0,0,0,0,0,0,0,0,0,0,0,0,0,0,0,0,0,0,0,0,0,0,0,0,0,0,0,0,0,0,0,0,0,0,0,0,0,0,0,0,0,0,0,0,0,0,0,0,0,0,0,0,0,0,0,0,0,0,0,0,0,0,0,0,0,0,0,0,0,0,0,0,0,0,0,0,0,0,0,0,0,0,0,0,0,0,0,0,0,0,0,0,0,0,0,0,0,0,0,0,0,0,0,0,0,0,0,0,0,0,0,0,0,0,0,0,0,0,0,0,0,0,0,0,0,0,0,0,0,0,0,0,0,0,0,0,0,0,0,0,0,0,0,0,0,0,0,0,0,0,0,0,0,0,0,0,0,0,0,0,0,0,0,0,0,0,0,0,0,0,0,0,0,0,0,0,0,0,0,0,0,0,0,0,0,0,0,0,0,0,0,0,0,0,0,0,0,0,0,0,0,0,0,0,0,0,0,0,0,0,0,0,0,0,0,0,0,0,0,0,0,0,0,0,0,0,0,0,0,0,0,0,0,0,0,0,0,0,0,0,0,0,0,0,0,0,0,0,0,0,0,0,0,0,0,0,0,0,0,0,0,0,0,0,0,0,0,0,0,0,0,0,0,0,0,0,0,0,0,0,0,0,0,0,0,0,0,0,0,0,0,0,0,0,0,0,0,0,0,0,0,0,0,0,0,0,0,0,0,0,0,0,0,0,0,0,0,0,0,0,0,0,0,0,0,0,0
</data>
 </layer>
</map>