<?xml version="1.0" encoding="UTF-8"?>
<map version="1.10" tiledversion="1.10.2" orientation="orthogonal" renderorder="right-down" width="28" height="20" tilewidth="16" tileheight="16" infinite="0" nextlayerid="4" nextobjectid="1">
 <properties>
  <property name="Outdoors" value="T" />
  <property name="CardchaRegionVersion" value="0.3.0-alpha.28.0.4.14.4.5.12.31" />
  <property name="CardchaRegionRole" value="region1-boss-arena|verdant-guardian|boss1" />
  <property name="CardchaAssetPolicy" value="cardcha-owned-map|vanilla-tiles-only|no-third-party-assets" />
 </properties>
 <tileset firstgid="1" name="spring_outdoorsTileSheet" tilewidth="16" tileheight="16" tilecount="1975" columns="25">
  <image source=".spring_outdoorsTileSheet.png" width="400" height="1264" />
 </tileset>
 <layer id="1" name="Back" width="28" height="20"><data encoding="csv">
382,381,381,381,381,381,381,381,381,381,381,381,381,381,381,381,381,381,381,381,381,381,381,381,381,381,381,381,381,381,381,381,381,381,381,381,381,381,381,381,381,381,381,381,381,381,381,381,381,381,381,381,381,381,381,381,381,381,381,381,381,381,381,381,381,381,381,381,381,381,381,381,381,381,381,381,381,381,381,381,381,382,381,381,381,381,381,381,381,381,381,381,381,381,457,457,457,457,457,457,457,457,381,381,381,381,382,381,381,381,381,381,381,381,381,381,381,381,381,381,457,457,457,457,457,457,457,457,457,457,457,457,381,381,381,381,381,381,381,381,381,381,381,381,381,381,381,457,457,457,457,457,457,457,457,457,457,457,457,457,457,381,381,381,381,381,381,381,381,381,381,381,381,381,457,457,457,457,457,457,457,457,457,457,457,457,457,457,457,457,381,381,381,381,381,381,381,381,381,381,381,381,457,457,457,457,457,457,457,457,457,457,457,457,457,457,457,457,381,381,381,381,381,381,381,381,381,381,381,457,457,457,457,457,457,457,457,457,457,457,457,457,457,457,457,457,457,381,381,381,381,381,381,381,381,381,382,457,457,457,457,457,457,457,457,457,457,457,457,457,457,457,457,457,457,381,381,381,381,381,381,382,381,381,381,457,457,457,457,457,457,457,457,457,457,457,457,457,457,457,457,457,457,381,381,381,381,381,381,381,381,381,381,381,457,457,457,457,457,457,457,457,457,457,457,457,457,457,457,457,381,381,381,381,381,381,381,381,381,381,381,381,457,457,457,457,457,457,457,457,457,457,457,457,457,457,457,457,381,381,381,381,382,381,381,381,381,381,381,381,381,457,457,457,457,457,457,457,457,457,457,457,457,457,457,381,381,382,381,381,381,381,381,381,381,381,381,381,381,381,457,457,457,457,457,457,457,457,457,457,457,457,382,381,381,381,381,381,381,381,381,381,381,381,381,381,381,381,381,381,457,457,457,457,457,457,457,457,381,381,381,381,381,381,381,381,381,381,381,381,381,381,381,381,381,381,381,381,381,381,381,381,382,381,381,381,381,381,381,381,381,381,381,381,381,381,381,381,381,381,381,381,381,381,381,381,381,382,381,381,381,381,381,381,381,381,381,381,381,381,381,381,381,381,381,381,381,381,381,381,381,381,382,381,381,381,381,381,381,381,381,381,381,381,381,381,381,381,381,381,381,381,381,381,381,381,381,382,381,381,381,381,381,381,381,381,381,381,381,381,381,381,381,381,381,381,381,381,381,381
</data></layer>
 <layer id="2" name="Buildings" width="28" height="20"><data encoding="csv">
381,381,381,381,381,381,381,381,381,381,381,381,381,381,381,381,381,381,381,381,381,381,381,381,381,381,381,381,381,0,0,0,0,0,0,0,0,0,0,0,0,0,0,0,0,0,0,0,0,0,0,0,0,0,0,381,381,0,0,0,0,0,0,0,0,0,0,0,0,0,0,0,0,0,0,0,0,0,0,0,0,0,0,381,381,0,0,0,0,0,0,0,0,0,0,0,0,0,0,0,0,0,0,0,0,0,0,0,0,0,0,381,381,0,0,0,0,0,0,0,0,0,0,0,0,0,0,0,0,0,0,0,0,0,0,0,0,0,0,381,381,0,0,0,0,381,0,0,0,0,0,0,0,0,0,0,0,0,0,0,0,0,381,0,0,0,0,381,381,0,0,0,0,0,0,0,0,0,0,0,0,0,0,0,0,0,0,0,0,0,0,0,0,0,0,381,381,0,0,0,0,0,0,0,0,0,0,0,0,0,0,0,0,0,0,0,0,0,0,0,0,0,0,381,381,0,0,0,0,0,0,0,0,0,0,0,0,0,0,0,0,0,0,0,0,0,0,0,0,0,0,381,381,0,0,0,0,0,0,0,0,0,0,0,0,0,0,0,0,0,0,0,0,0,0,0,0,0,0,381,381,0,0,0,0,0,0,0,0,0,0,0,0,0,0,0,0,0,0,0,0,0,0,0,0,0,0,381,381,0,0,0,0,0,0,0,0,0,0,0,0,0,0,0,0,0,0,0,0,0,0,0,0,0,0,381,381,0,0,0,0,0,0,0,0,0,0,0,0,0,0,0,0,0,0,0,0,0,0,0,0,0,0,381,381,0,0,0,0,0,0,0,0,0,0,0,0,0,0,0,0,0,0,0,0,0,0,0,0,0,0,381,381,0,0,0,0,381,0,0,0,0,0,0,0,0,0,0,0,0,0,0,0,0,381,0,0,0,0,381,381,0,0,0,0,0,0,0,0,0,0,0,0,0,0,0,0,0,0,0,0,0,0,0,0,0,0,381,381,0,0,0,0,0,0,0,0,0,0,0,0,0,0,0,0,0,0,0,0,0,0,0,0,0,0,381,381,0,0,0,0,0,0,0,0,0,0,0,0,0,0,0,0,0,0,0,0,0,0,0,0,0,0,381,381,0,0,0,0,0,0,0,0,0,0,0,0,0,0,0,0,0,0,0,0,0,0,0,0,0,0,381,381,381,381,381,381,381,381,381,381,381,381,381,381,0,0,381,381,381,381,381,381,381,381,381,381,381,381,381
</data></layer>
 <layer id="3" name="Front" width="28" height="20"><data encoding="csv">
0,0,0,0,0,0,0,0,0,0,0,0,0,0,0,0,0,0,0,0,0,0,0,0,0,0,0,0,0,0,0,0,0,0,0,0,0,0,0,0,0,0,0,0,0,0,0,0,0,0,0,0,0,0,0,0,0,0,0,0,0,0,0,0,0,0,0,0,0,0,0,0,0,0,0,0,0,0,0,0,0,0,0,0,0,0,0,0,0,0,0,0,0,0,0,0,0,0,0,0,0,0,0,0,0,0,0,0,0,0,0,0,0,0,0,0,0,0,0,0,0,0,0,0,0,0,0,0,0,0,0,0,0,0,0,0,0,0,0,0,0,0,0,0,0,0,0,0,0,0,0,0,0,0,0,0,0,0,0,0,0,0,0,0,0,0,0,0,0,0,0,0,0,0,0,0,0,0,0,0,0,0,0,0,0,0,0,0,0,0,0,0,0,0,0,0,0,0,0,0,0,0,0,0,0,0,0,0,0,0,0,0,0,0,0,0,0,0,0,0,0,0,0,0,0,0,0,0,0,0,0,0,0,0,0,0,0,0,0,0,0,0,0,0,0,0,0,0,0,0,0,0,0,0,0,0,0,0,0,0,0,0,0,0,0,0,0,0,0,0,0,0,0,0,0,0,0,0,0,0,0,0,0,0,0,0,0,0,0,0,0,0,0,0,0,0,0,0,0,0,0,0,0,0,0,0,0,0,0,0,0,0,0,0,0,0,0,0,0,0,0,0,0,0,0,0,0,0,0,0,0,0,0,0,0,0,0,0,0,0,0,0,0,0,0,0,0,0,0,0,0,0,0,0,0,0,0,0,0,0,0,0,0,0,0,0,0,0,0,0,0,0,0,0,0,0,0,0,0,0,0,0,0,0,0,0,0,0,0,0,0,0,0,0,0,0,0,0,0,0,0,0,0,0,0,0,0,0,0,0,0,0,0,0,0,0,0,0,0,0,0,0,0,0,0,0,0,0,0,0,0,0,0,0,0,0,0,0,0,0,0,0,0,0,0,0,0,0,0,0,0,0,0,0,0,0,0,0,0,0,0,0,0,0,0,0,0,0,0,0,0,0,0,0,0,0,0,0,0,0,0,0,0,0,0,0,0,0,0,0,0,0,0,0,0,0,0,0,0,0,0,0,0,0,0,0,0,0,0,0,0,0,0,0,0,0,0,0,0,0,0,0,0,0,0,0,0,0,0,0,0,0,0,0,0,0,0,0,0,0,0,0,0,0,0,0,0,0,0,0,0,0,0,0,0,0,0,0,0,0
</data></layer>
</map>
