<?xml version='1.0' encoding='UTF-8'?>
<map version="1.10" tiledversion="1.10.2" orientation="orthogonal" renderorder="right-down" width="28" height="20" tilewidth="16" tileheight="16" infinite="0" nextlayerid="5" nextobjectid="1">
 <properties>
  <property name="Outdoors" value="T" />
  <property name="CardchaRegionVersion" value="0.3.0-alpha.28.0.4.14.4.5.12.61" />
  <property name="CardchaRegionRole" value="region1-huntrun-room|room-6|card-shrine" />
  <property name="CardchaAssetPolicy" value="cardcha-owned-map|vanilla-terrain+cardcha-owned-region1-props|no-third-party-assets" />
  <property name="CardchaRegionEnvironment" value="0695|card-shrine|map-native-props|BackDecor+Buildings+Front|anchors-frozen" />
  <property name="CardchaTextureContract" value="0695|flat-rgba-region1-environment|png-color-type-6" />
 </properties>
 <tileset firstgid="1" name="spring_outdoorsTileSheet" tilewidth="16" tileheight="16" tilecount="1975" columns="25">
  <image source=".spring_outdoorsTileSheet.png" width="400" height="1264" />
 </tileset>
 <tileset firstgid="6000" name="CardchaRegion1Environment0695" tilewidth="16" tileheight="16" tilecount="128" columns="16">
  <image source="region1_environment_props_0695.png" width="256" height="128" />
 </tileset>
 <layer id="1" name="Back" width="28" height="20">
  <data encoding="csv">
381,381,381,381,381,381,381,381,381,381,381,381,381,381,381,381,381,381,381,381,381,381,381,381,381,381,381,381,381,381,381,381,381,381,381,381,382,381,381,381,457,457,457,457,381,381,381,381,381,381,381,381,381,381,381,381,381,381,381,381,381,381,381,381,381,381,381,381,457,457,457,457,381,381,381,381,381,381,381,381,381,381,381,381,381,381,381,381,381,381,381,381,381,381,381,381,457,457,457,457,381,381,382,381,381,381,381,381,381,381,381,381,381,381,381,381,381,381,381,381,381,381,381,381,457,457,457,457,381,381,381,381,381,381,381,382,381,381,381,381,381,381,381,381,381,381,381,381,381,381,381,381,457,457,457,457,381,381,381,381,381,381,381,381,381,381,381,381,381,381,381,381,382,381,381,381,381,381,381,381,457,457,457,457,381,381,381,381,381,381,381,381,381,381,381,381,381,381,381,381,381,381,381,381,381,382,381,381,457,457,457,457,381,381,381,381,381,381,381,381,381,381,381,381,381,381,381,381,381,457,457,457,457,457,457,457,457,457,457,457,457,457,457,457,457,457,457,381,381,381,381,381,381,381,381,381,381,457,457,457,457,457,457,457,457,457,457,457,457,457,457,457,457,457,457,381,381,381,381,381,381,381,381,381,381,457,457,457,457,457,457,457,457,457,457,457,457,457,457,457,457,457,457,381,382,381,381,381,381,381,381,381,381,457,457,457,457,457,457,457,457,457,457,457,457,457,457,457,457,457,457,381,381,381,381,381,381,381,381,381,381,382,381,381,381,381,381,381,457,457,457,457,381,381,381,381,381,381,381,381,381,381,381,381,381,381,381,381,381,381,381,381,381,381,382,381,457,457,457,457,381,381,381,381,381,381,381,381,381,381,381,381,381,381,381,381,381,381,381,381,381,381,381,381,457,457,457,457,381,381,381,381,381,381,381,381,381,381,381,381,381,381,381,381,381,381,381,381,381,381,381,381,457,457,457,457,381,381,381,381,382,381,381,381,381,381,381,381,381,381,381,381,381,381,381,381,381,381,381,381,457,457,457,457,381,381,381,381,381,381,381,381,381,382,381,381,381,382,381,381,381,381,381,381,381,381,381,381,457,457,457,457,381,381,381,381,381,381,381,381,381,381,381,381,381,381,381,381,381,381,382,381,381,381,381,381,457,457,457,457,381,381,381,381,381,381,381,381,381,381,381,381,381,381,381,381,381,381,381,381,381,381,381,381,381,381,381,381,381,381,381,381,381,381,381,381,381,381,381,381
</data>
 </layer>
 <layer id="4" name="BackDecor" width="28" height="20">
  <data encoding="csv">
0,0,0,0,0,0,0,0,0,0,0,0,0,0,0,0,0,0,0,0,0,0,0,0,0,0,0,0,0,0,0,0,0,0,0,0,0,0,0,0,0,0,0,0,0,0,0,0,0,0,0,0,0,0,0,0,0,0,0,0,0,0,0,0,0,0,0,0,0,0,0,0,0,0,0,0,0,0,0,0,0,0,0,0,0,0,0,0,0,0,0,0,0,0,0,0,0,0,0,0,0,0,0,0,0,0,0,0,0,0,0,0,0,0,0,6015,0,0,0,0,0,0,0,0,0,0,0,0,0,0,0,0,0,0,0,6009,0,0,0,0,0,0,0,0,0,6020,0,0,0,0,0,0,0,0,0,0,0,0,0,0,0,0,0,0,0,6014,0,0,0,0,0,0,0,0,0,0,0,0,0,0,0,0,0,0,0,0,0,0,0,0,0,0,0,0,0,0,0,0,0,0,0,0,0,0,0,0,0,0,0,0,0,0,0,0,0,0,0,0,0,0,0,0,0,0,0,0,0,6019,0,0,0,6011,0,0,0,0,0,0,0,0,0,0,0,0,6016,0,6013,0,0,0,0,0,0,0,0,0,0,0,0,0,0,0,0,0,0,0,0,0,0,0,0,0,0,0,0,0,0,0,0,0,0,0,0,0,0,0,0,0,0,0,0,0,0,0,0,0,0,0,0,0,0,0,0,0,0,0,0,0,0,0,0,0,0,6008,0,0,0,0,6009,0,0,0,0,0,0,0,6030,0,0,0,0,0,6018,0,0,0,0,0,0,0,0,0,0,0,0,0,0,0,0,0,0,0,0,0,0,0,0,0,0,0,0,0,0,0,0,0,0,0,0,0,0,6005,0,0,0,0,0,0,0,0,0,0,0,0,6010,0,0,0,0,0,0,0,0,0,0,0,6007,0,0,0,0,0,0,0,0,0,0,0,0,0,0,0,0,6017,0,0,0,0,0,0,0,0,0,0,0,0,0,0,0,6031,0,0,0,0,0,0,0,0,0,6004,0,0,0,0,0,0,0,0,0,0,0,0,0,0,6012,0,0,0,0,0,0,0,0,0,0,0,0,0,0,0,0,0,6006,0,0,0,0,0,0,0,0,0,0,0,0,0,0,0,0,0,0,0,0,0,0,0,0,0,0,0,0,0,0,0,0,0,0,0,0,0,0,0,0,0,0,0,0,0,0,0,0,0,0,0,0,0,0,0,0,0,0,0,0,0,0,0,0,0,0,0,0,0,0,0,0,0,0,0,0,0,0,0,0,0,0,0,0,0,0,0
</data>
 </layer>
 <layer id="2" name="Buildings" width="28" height="20">
  <data encoding="csv">
381,381,381,381,381,381,381,381,381,381,381,381,381,0,0,381,381,381,381,381,381,381,381,381,381,381,381,381,381,0,0,0,0,0,0,0,0,0,0,0,0,0,0,0,0,0,0,0,0,0,0,0,0,0,0,381,381,0,0,0,0,0,0,0,0,0,0,0,0,0,0,0,0,0,0,0,0,0,0,0,0,0,0,381,381,0,0,0,0,0,0,0,0,0,0,0,0,0,0,0,0,0,0,0,0,0,0,0,0,0,0,381,381,0,0,0,0,0,0,0,0,0,0,0,0,0,0,0,0,0,0,0,0,0,0,0,0,0,0,381,381,0,0,0,0,0,0,0,0,0,0,0,0,0,0,0,0,0,0,0,0,0,0,0,0,0,0,381,6127,0,0,0,0,0,0,0,0,0,0,0,0,0,0,0,0,0,0,0,0,0,0,0,0,0,0,381,6068,0,0,0,0,0,0,0,381,381,0,0,0,0,0,0,0,0,381,381,0,0,0,0,0,0,0,381,6121,0,0,0,0,0,0,0,0,0,0,0,0,0,0,0,0,0,0,0,0,0,0,0,0,0,0,6078,6115,0,0,0,0,0,0,0,0,0,0,0,381,0,0,381,0,0,0,0,0,0,0,0,0,0,0,381,381,0,0,0,0,0,0,0,0,0,0,0,381,0,0,381,0,0,0,0,0,0,0,0,0,0,0,6072,6125,0,0,0,0,0,0,0,0,0,0,0,0,0,0,0,0,0,0,0,0,0,0,0,0,0,0,381,381,0,0,0,0,0,0,0,381,381,0,0,0,0,0,0,0,0,381,381,0,0,0,0,0,0,0,381,381,0,0,0,0,0,0,0,0,0,0,0,0,0,0,0,0,0,0,0,0,0,0,0,0,0,0,381,6066,0,0,0,0,0,0,0,0,0,0,0,0,0,0,0,0,0,0,0,0,0,0,0,0,0,0,381,381,0,0,0,0,0,0,0,0,0,0,0,0,0,0,0,0,0,0,0,0,0,0,0,0,0,0,6119,381,0,0,0,0,0,0,0,0,0,0,0,0,0,0,0,0,0,0,0,0,0,0,0,0,0,0,381,381,0,0,0,0,0,0,0,0,0,0,0,0,0,0,0,0,0,0,0,0,0,0,0,0,0,0,381,381,0,0,0,0,0,0,0,0,0,0,0,0,0,0,0,0,0,0,0,0,0,0,0,0,0,0,381,381,381,381,381,381,381,381,381,381,381,381,381,381,0,0,381,381,381,381,381,381,381,381,381,381,381,381,381
</data>
 </layer>
 <layer id="3" name="Front" width="28" height="20">
  <data encoding="csv">
0,0,0,0,0,0,0,0,0,0,0,0,0,0,0,0,0,0,0,0,0,0,0,0,0,0,0,0,0,0,0,0,0,0,0,0,0,0,0,0,0,0,0,0,0,0,0,0,0,0,0,0,0,0,0,0,0,0,0,0,0,0,0,0,0,0,0,0,0,0,0,0,0,0,0,0,0,0,0,0,0,0,0,0,0,0,0,0,0,0,0,0,0,0,0,0,0,0,0,0,0,0,0,0,0,0,0,0,0,0,0,0,0,0,0,0,0,0,0,0,0,0,0,0,0,0,0,0,0,0,0,0,0,0,0,0,0,0,0,0,6116,0,0,0,0,0,0,0,0,0,0,0,0,0,0,0,0,0,0,0,0,0,0,0,0,0,0,0,6087,0,0,0,0,0,0,0,0,0,0,0,0,0,0,0,0,0,0,0,0,0,0,0,0,0,0,0,6122,0,0,0,0,0,0,0,0,0,0,0,0,0,0,0,0,0,0,0,0,0,0,0,0,0,0,6093,0,0,0,0,0,0,0,0,0,0,0,0,0,0,0,0,0,0,0,0,0,0,0,0,0,0,0,0,0,0,0,0,0,0,0,0,0,0,0,0,0,0,0,0,0,0,0,0,0,0,0,0,0,0,0,0,0,0,0,0,0,0,0,0,0,0,0,0,0,0,0,0,0,0,0,0,0,0,0,0,0,0,0,0,0,0,0,0,0,0,0,0,0,0,0,0,0,0,0,0,0,0,0,0,0,0,0,0,0,0,0,0,0,0,0,0,0,0,0,0,0,0,0,0,0,0,0,0,0,0,0,0,0,0,0,0,0,0,0,0,0,0,0,0,0,0,0,0,0,0,0,0,0,0,0,0,0,0,0,0,0,0,0,0,0,0,0,0,0,0,0,0,0,0,0,0,0,0,0,0,0,0,0,0,0,0,0,0,0,0,0,0,0,0,0,0,0,0,0,0,0,0,0,0,0,0,0,0,0,0,0,0,0,0,0,0,0,0,0,0,0,0,0,0,0,0,0,0,0,0,0,0,0,0,0,0,0,0,0,0,0,0,0,0,0,0,0,0,0,0,0,0,0,0,0,0,0,0,0,0,0,0,0,0,0,0,0,0,0,0,0,0,0,0,0,0,0,0,0,0,0,0,0,0,0,0,0,0,0,0,0,0,0,0,0,0,0,0,0,0,0,0,0,0,0,0,0,0,0,0,0,0,0,0,0,0,0,0,0,0,0,0,0,0,0,0,0,0,0,0,0,0,0,0,0,0
</data>
 </layer>
</map>