<?xml version='1.0' encoding='UTF-8'?>
<map version="1.10" tiledversion="1.10.2" orientation="orthogonal" renderorder="right-down" width="28" height="20" tilewidth="16" tileheight="16" infinite="0" nextlayerid="5" nextobjectid="1">
 <properties>
  <property name="Outdoors" value="T" />
  <property name="CardchaRegionVersion" value="0.3.0-alpha.28.0.4.14.4.5.12.61" />
  <property name="CardchaRegionRole" value="region1-huntrun-room|room-3|old-ruins" />
  <property name="CardchaAssetPolicy" value="cardcha-owned-map|vanilla-terrain+cardcha-owned-region1-props|no-third-party-assets" />
  <property name="CardchaRegionEnvironment" value="0695|old-ruins|map-native-props|BackDecor+Buildings+Front|anchors-frozen" />
  <property name="CardchaTextureContract" value="0695|flat-rgba-region1-environment|png-color-type-6" />
 </properties>
 <tileset firstgid="1" name="spring_outdoorsTileSheet" tilewidth="16" tileheight="16" tilecount="1975" columns="25">
  <image source=".spring_outdoorsTileSheet.png" width="400" height="1264" />
 </tileset>
 <tileset firstgid="6000" name="CardchaRegion1Environment0695" tilewidth="16" tileheight="16" tilecount="128" columns="16">
  <image source="region1_environment_props_0695.png" width="256" height="128" />
 </tileset>
 <layer id="1" name="Back" width="28" height="20">
  <data encoding="csv">
381,381,381,381,381,381,381,381,381,381,381,381,381,381,381,381,381,381,381,381,381,381,381,381,381,381,381,381,381,381,381,381,381,381,381,381,381,381,381,381,382,457,457,381,381,381,381,381,381,381,381,381,381,381,381,381,381,381,381,381,381,381,381,381,381,381,381,381,381,457,457,381,381,382,381,381,381,381,381,381,381,381,381,381,381,381,381,381,381,381,381,381,381,457,457,457,457,457,457,457,457,457,457,381,381,381,382,381,381,381,381,381,381,381,381,381,381,381,381,381,381,457,457,457,457,457,457,457,457,457,457,381,381,381,381,381,381,381,381,381,381,381,381,382,381,381,381,381,381,457,457,457,457,457,457,457,457,457,457,381,381,381,381,381,381,381,381,381,381,381,381,381,381,381,381,381,382,457,457,457,457,457,457,457,457,457,457,381,381,381,381,381,381,381,381,381,381,381,381,381,381,381,381,381,381,457,457,457,457,457,457,457,457,457,457,381,381,381,381,381,381,381,381,381,381,381,381,381,381,381,381,381,381,457,457,457,457,457,457,457,457,457,457,381,381,381,381,381,381,381,381,381,381,381,381,381,381,381,381,381,381,457,457,457,457,457,457,457,457,457,457,381,381,381,381,382,381,381,381,381,381,381,381,381,381,381,381,381,381,457,457,457,457,457,457,457,457,457,457,381,381,381,381,381,381,381,381,381,381,381,381,381,382,381,381,381,381,457,457,457,457,457,457,457,457,457,457,381,381,381,381,381,381,381,381,381,381,381,381,381,381,381,381,381,381,457,457,457,457,457,457,457,457,457,457,381,381,381,381,381,381,381,381,381,381,381,381,381,381,381,381,381,381,457,457,457,457,457,457,457,457,457,457,381,381,381,381,381,381,381,381,381,381,381,381,381,381,381,381,381,381,457,457,457,457,457,457,457,457,457,457,382,381,381,381,381,381,381,381,381,381,381,381,381,381,381,381,381,381,457,457,457,457,457,457,457,457,457,457,381,381,381,381,381,382,381,381,381,381,381,381,381,381,381,381,381,381,457,457,457,457,457,457,457,457,457,457,381,381,381,381,381,381,381,381,381,381,381,381,381,381,382,381,381,381,381,381,381,381,457,457,381,381,381,381,381,381,381,381,381,381,381,381,381,381,381,381,381,381,381,381,381,381,381,382,381,381,457,457,381,381,381,381,381,381,381,381,381,381,381,381,381,381,381,381,381,381,381,381,381,381,381,381,381,381,381,381,381,381,381,381,381,381,381,381,381,381,381,381,381
</data>
 </layer>
 <layer id="4" name="BackDecor" width="28" height="20">
  <data encoding="csv">
0,0,0,0,0,0,0,0,0,0,0,0,0,0,0,0,0,0,0,0,0,0,0,0,0,0,0,0,0,0,0,0,0,0,0,0,0,0,0,0,0,0,0,0,0,0,0,0,0,0,0,0,0,0,0,0,0,0,0,0,0,0,0,0,0,0,0,0,0,0,0,0,0,0,0,0,0,0,0,0,0,0,0,0,0,0,0,6006,0,0,0,0,0,0,0,0,0,0,0,0,0,0,0,0,0,0,0,6000,0,0,0,0,0,0,0,0,0,6027,0,0,0,0,0,0,0,0,0,0,0,0,0,0,0,0,0,0,0,0,0,0,0,0,0,0,0,0,0,0,0,0,0,0,0,0,0,0,0,0,0,0,0,0,0,0,0,6005,0,0,0,0,0,0,0,0,0,0,0,0,0,0,0,0,0,0,0,0,0,0,0,0,0,0,0,0,0,0,0,0,0,0,0,0,0,6002,0,0,0,0,0,0,0,0,0,0,0,0,6023,0,0,0,0,0,0,0,0,0,0,6026,0,0,0,0,0,0,0,0,0,0,0,0,0,0,0,0,0,0,6004,0,0,0,0,0,0,0,0,0,0,0,0,0,0,6022,0,0,0,0,0,0,0,0,0,0,0,0,0,0,0,0,0,0,0,0,0,0,0,6015,0,0,0,0,0,0,0,0,0,0,0,0,0,0,0,0,0,0,6025,0,0,0,0,0,0,0,0,0,0,0,0,0,0,0,0,0,0,0,0,0,0,6011,0,0,0,0,0,0,0,0,0,0,0,0,0,0,0,0,0,0,0,0,0,0,0,0,0,0,0,0,0,0,0,0,0,0,0,0,0,0,0,0,6014,0,0,0,0,0,0,0,0,0,0,0,0,0,0,0,0,6024,0,0,0,0,0,0,0,0,0,0,0,0,0,6012,0,0,0,0,0,0,0,0,0,0,0,0,6001,0,0,0,0,0,0,0,0,0,0,0,0,0,6003,0,0,0,0,0,0,0,0,0,0,0,0,0,0,0,0,0,6013,0,0,0,0,0,0,6000,0,0,0,0,0,0,0,0,0,0,0,0,0,0,0,0,0,0,0,6021,0,0,0,0,0,0,0,0,0,0,0,0,0,0,0,0,0,0,0,0,0,0,0,0,0,0,0,0,0,0,0,0,0,0,0,0,0,0,0,0,0,0,0,0,0,0,0,0,0,0,0,0,0,0,0,0,0,0,0,0,0,0,0,0,0,0,0,0,0,0,0,0,0,0,0,0,0,0,0,0,0,0,0,0,0,0,0,0
</data>
 </layer>
 <layer id="2" name="Buildings" width="28" height="20">
  <data encoding="csv">
381,381,381,381,381,381,381,381,381,381,381,381,381,0,0,381,381,381,381,381,381,381,381,381,381,381,381,381,381,0,0,0,0,0,0,0,0,0,0,0,0,0,0,0,0,0,0,0,0,0,0,0,0,0,0,381,381,0,0,0,0,0,0,0,0,0,0,0,0,0,0,0,0,0,0,0,0,0,0,0,0,0,0,381,381,0,0,0,0,0,0,0,0,0,0,0,0,0,0,0,0,0,0,0,0,0,0,0,0,0,0,6070,381,0,0,0,0,0,0,0,0,0,0,0,0,0,0,0,0,0,0,0,0,0,0,0,0,0,0,6075,6064,0,0,0,0,381,381,0,0,0,0,0,0,0,0,0,0,0,0,0,0,381,381,0,0,0,0,381,6069,0,0,0,0,381,0,0,0,0,0,0,0,0,0,0,0,0,0,0,0,0,381,0,0,0,0,381,381,0,0,0,0,0,0,0,0,0,0,0,0,0,0,0,0,0,0,0,0,0,0,0,0,0,0,381,6074,0,0,0,0,0,0,0,0,381,381,0,0,0,0,0,0,381,381,0,0,0,0,0,0,0,0,381,6079,0,0,0,0,0,0,0,0,0,0,0,0,0,0,0,0,0,0,0,0,0,0,0,0,0,0,6068,381,0,0,0,0,0,0,0,0,0,0,0,0,0,0,0,0,0,0,0,0,0,0,0,0,0,0,6073,6078,0,0,0,0,0,0,0,0,0,0,0,0,0,0,0,0,0,0,0,0,0,0,0,0,0,0,381,381,0,0,0,0,0,0,0,0,381,381,0,0,0,0,0,0,381,381,0,0,0,0,0,0,0,0,381,381,0,0,0,0,0,0,0,0,0,0,0,0,0,0,0,0,0,0,0,0,0,0,0,0,0,0,6067,6072,0,0,0,0,381,381,0,0,0,0,0,0,0,0,0,0,0,0,0,0,381,381,0,0,0,0,381,381,0,0,0,0,0,0,0,0,0,0,0,0,0,0,0,0,0,0,0,0,0,0,0,0,0,0,381,381,0,0,0,0,0,0,0,0,0,0,0,0,0,0,0,0,0,0,0,0,0,0,0,0,0,0,381,381,0,0,0,0,0,0,0,0,0,0,0,0,0,0,0,0,0,0,0,0,0,0,0,0,0,0,381,381,0,0,0,0,0,0,0,0,0,0,0,0,0,0,0,0,0,0,0,0,0,0,0,0,0,0,381,381,381,381,381,381,381,381,381,381,381,381,381,381,0,0,381,381,381,381,381,381,381,381,381,381,381,381,381
</data>
 </layer>
 <layer id="3" name="Front" width="28" height="20">
  <data encoding="csv">
0,0,0,0,0,0,0,0,0,0,0,0,0,0,0,0,0,0,0,0,0,0,0,0,0,0,0,0,0,0,0,0,0,0,0,0,0,0,0,0,0,0,0,0,0,0,0,0,0,0,0,0,0,0,0,0,0,0,0,0,0,0,0,0,0,0,0,0,0,0,0,0,0,0,0,0,0,0,0,0,0,0,0,6088,0,0,0,0,0,0,0,0,0,0,0,0,0,0,0,0,0,0,0,0,0,0,0,0,0,0,0,6091,6094,0,0,0,0,0,0,0,0,0,0,0,0,0,0,0,0,0,0,0,0,0,0,0,0,0,0,0,6081,0,0,0,0,0,0,0,0,0,0,0,0,0,0,0,0,0,0,0,0,0,0,0,0,0,0,0,0,0,0,0,0,0,0,0,0,0,0,0,0,0,0,0,0,0,0,0,0,0,0,0,0,0,0,0,0,0,0,0,0,0,0,0,0,0,0,0,0,0,0,0,0,0,0,0,0,0,0,0,0,0,0,0,0,0,0,0,0,0,0,0,0,0,0,0,0,0,0,0,0,0,0,0,0,0,0,0,0,0,0,0,0,0,0,0,0,0,0,0,0,0,0,0,0,0,0,0,0,0,0,0,0,0,0,0,0,0,0,0,0,0,0,0,0,0,0,0,0,0,0,0,0,0,0,0,0,0,0,0,0,0,0,0,0,0,0,0,0,0,0,0,0,0,0,0,0,0,0,0,0,0,0,0,0,0,0,0,0,0,0,0,0,0,0,0,0,0,0,0,0,0,0,0,0,0,0,0,0,0,0,0,0,0,0,0,0,0,0,0,0,0,0,0,0,0,0,0,0,0,0,0,0,0,0,0,0,0,0,0,0,0,0,0,0,0,0,0,0,0,0,0,0,0,0,0,0,0,0,0,0,0,0,0,0,0,0,0,0,0,0,0,0,0,0,0,0,0,0,0,0,0,0,0,0,0,0,0,0,0,0,0,0,0,0,0,0,0,0,0,0,0,0,0,0,0,0,0,0,0,0,0,0,0,0,0,0,0,0,0,0,0,0,0,0,0,0,0,0,0,0,0,0,0,0,0,0,0,0,0,0,0,0,0,0,0,0,0,0,0,0,0,0,0,0,0,0,0,0,0,0,0,0,0,0,0,0,0,0,0,0,0,0,0,0,0,0,0,0,0,0,0,0,0,0,0,0,0,0,0,0,0,0,0,0,0,0,0,0,0,0,0,0,0,0,0,0,0,0,0,0,0,0,0,0,0,0,0,0,0
</data>
 </layer>
</map>